X: 24195
T: Lord Leitrim
R: barndance
M: 4/4
K: Cmajor
CDEF G2 FD|G2 FE FDDF|G,DFA G2 FD|1 G2 FD ECA,G,:|2 G2 FD EC C2||
cdcB G3 F|E2 GE FD D2|cdcB G3 F|D2 FD EC C2|
cdcB G3 F|E2 GE FD D2|ecdB c2 cA|GAGF DEFD||

